X:1
T:Ring the Bells
T:Ring the Bells
T:John Harrison Tenney
T:Mrs. E. C. Ellsworth, 1881
T:Public Domain Courtesy of the Cyber Hymnal™
T:Public Domain Courtesy of the Cyber Hymnal™
C:John Harrison Tenney
Z:Public Domain
Z:Courtesy of the Cyber Hymnal™
%%score ( 1 2 ) ( 3 4 )
L:1/8
Q:1/4=75
M:2/4
K:G
V:1 treble 
V:2 treble 
V:3 bass 
V:4 bass 
V:1
 [GB]>[GB] [GB][GB] | [GB][GB] [Gd]G | [EG]>[EG] [EG][EG] | [Ec][Ec] [DB]2 | [^DB]>[DB] [DB][DF] | %5
w: 1.~Go, pro- claim it|to the peo- ple,|Let the glor- ious|tid- ings fly!|From the grave our|
w: 2.~Go, pro- claim it|to the peo- ple,|Christ has con- quered|ev- ery foe,|Burst the bars of|
w: 3.~Lo! a light has|burst up- on us,|See the dark- ness|flee a- way;|In the bright- ness|
 [EG][FA] [EG][EB] | [Ge]>[Ge] [Ge][Ge] | [Fd][E^c] [Fd]2 | %8
w: Lord has ris- en,|Ne- ver- more shall|Je- sus die!|
w: death a- sun- der,|He de- feat shall|ne- ver know;|
w: of His ris- ing,|Com- eth now the|prom- ised day;|
"^Trio - Soprano & Alto" [GBd]>[GBd] [GBd][Gce] | (d/[Ac]/) ([GB]/[Ac]/) [GBd][DGB] | %10
w: We re- ceived the|joy- * ful * mes- sage,|
w: Sin with all its|shame * is * hid- ing,|
w: Yes, the glor- ious|sun * ap- * pear- eth,|
 [DAc]>[DAc] [DAc][DBd] | ([Ac]/[GB]/) ([FA]/[GB]/) [DAc]2 | [GB]>[GB] ([Bd]/[Ac]/) ([GB]/[Ac]/) | %13
w: Borne up- on the|morn- * ing * air;|Tell, O tell * it *|
w: Death re- ceives a|fa- * tal * blow,|That He is * the *|
w: Hope and joy for|Is- * ra- * el;|Wake the na- * tions *|
 [GBd][Gce] [GBd][GB] | [Gce]>[Gce] [GBd][DGB] | [DFA][CFd] !fermata![B,G]2 |:"^Refrain" dd d2- | %17
w: to the peo- ple,|Let them all the|glad- ness share.||
w: prom- ised Sav- ior,|All the world shall|quick- ly know.||
w: at His ris- ing,|Go ye forth the|news to tell.||
 d4 :| [Fd]>[FA] [GB][E^c] | [Fd]4 | [FA]>[FA] [FA][GB] | [Ac][Bd] [Ac][FA] | [GB]>[GB] [GB][Gc] | %23
w: ||||||
w: ||||||
w: ||||||
 [Gd][Ge] [Gd][GB] | [Gd]>[GB] [Gc][Gd] | !fermata![Ge]4 | [Fd]>[Ac] [GB][FA] | G4 |] %28
w: |||||
w: |||||
w: |||||
V:2
 x4 | x3 G | x4 | x4 | x4 | x4 | x4 | x4 | x4 | [GB]D x2 | x4 | DD x2 | x3/2 GD x/ | x4 | x4 | %15
 x4 |: x2 G x | FF G2 :| x4 | x4 | x4 | x4 | x4 | x4 | x4 | x4 | x4 | G4 |] %28
V:3
 [G,D]>[G,D] [G,D][G,D] | [G,D][G,D] [G,B,][G,B,] | [C,C]>[C,C] [C,G,][C,G,] | %3
w: ~ ~ ~ ~|~ ~ ~ ~|~ ~ ~ ~|
 [C,G,][C,G,] [G,,G,]2 | [B,,F,]>[B,,F,] [B,,F,][B,,B,] | [B,,B,][B,,B,] [E,B,][E,G,] | %6
w: ~ ~ ~|~ ~ ~ ~|~ ~ ~ ~|
 [E,B,]>[E,B,] [E,B,][G,B,] | A,[A,,A,] !fermata![D,A,]2 | z4 | z4 | z4 | z4 | z4 | z4 | z4 | z4 |: %16
w: ~ ~ ~ ~|~ ~ ~|||||||||
 z [G,B,] z x | [D,A,][D,A,] [G,B,]2 :| A,>A, A,A, | [D,A,]4 | [D,D]>[D,D] [D,D][D,D] | %21
w: Ring,|ring the bells!|Ring, O ring the|bells!|Go, pro- claim the|
 [D,D][D,D] [D,D][D,D] | [G,D]>[G,D] [G,D][G,A,] | [G,B,][G,C] [G,B,][G,D] | %24
w: joy- ful tid- ings,|Christ, the Lord, is|sure- ly ris- en;|
 [G,B,]>[=F,D] [E,C][D,B,] | !fermata![C,C]4 | [D,A,]>[D,D] [D,D][D,C] | [G,B,]4 |] %28
w: Ring, O ring the|bells!|Ring, O ring the|bells!|
V:4
 x4 | x4 | x4 | x4 | x4 | x4 | x4 | A, x3 | x4 | x4 | x4 | x4 | x4 | x4 | x4 | x4 |: x4 | x4 :| %18
 A,>A, A,A, | x4 | x4 | x4 | x4 | x4 | x4 | x4 | x4 | x4 |] %28

